packages/nodes-base/nodes/Linear/linear.svg

<svg width="64" height="64" viewBox="0 0 64 64" fill="none" xmlns="http://www.w3.org/2000/svg" style="width:24px;height:24px;margin-right:12px"><path d="M0.403013 37.3991L26.6009 63.597C13.2225 61.3356 2.66442 50.7775 0.403013 37.3991Z" fill="#5E6AD2"></path><path d="M0 30.2868L33.7132 64C35.7182 63.8929 37.6742 63.6013 39.5645 63.142L0.85799 24.4355C0.398679 26.3259 0.10713 28.2818 0 30.2868Z" fill="#5E6AD2"></path><path d="M2.53593 19.4042L44.5958 61.4641C46.1277 60.8066 47.598 60.0331 48.9956 59.1546L4.84543 15.0044C3.96691 16.402 3.19339 17.8723 2.53593 19.4042Z" fill="#5E6AD2"></path><path d="M7.69501 11.1447C13.5677 4.32093 22.2677 0 31.9769 0C49.6628 0 64 14.3372 64 32.0231C64 41.7323 59.6791 50.4323 52.8553 56.305L7.69501 11.1447Z" fill="#5E6AD2"></path></svg>

<svg xmlns="http://www.w3.org/2000/svg" width="64" height="64" fill="none" style="width:24px;height:24px;margin-right:12px"><path fill="#5E6AD2" d="m.403 37.4 26.198 26.197C13.223 61.336 2.664 50.777.403 37.399M0 30.287 33.713 64a32 32 0 0 0 5.852-.858L.858 24.435c-.46 1.89-.75 3.847-.858 5.852M2.536 19.404l42.06 42.06a32 32 0 0 0 4.4-2.31l-44.15-44.15a32 32 0 0 0-2.31 4.4M7.695 11.145C13.568 4.32 22.268 0 31.977 0 49.663 0 64 14.337 64 32.023c0 9.71-4.32 18.41-11.145 24.282z"/></svg>
